public/images/k8/kubelet.svg

<?xml version="1.0" encoding="UTF-8" standalone="no"?>
<!-- Created with Inkscape (http://www.inkscape.org/) -->

<svg
   xmlns:dc="http://purl.org/dc/elements/1.1/"
   xmlns:cc="http://creativecommons.org/ns#"
   xmlns:rdf="http://www.w3.org/1999/02/22-rdf-syntax-ns#"
   xmlns:svg="http://www.w3.org/2000/svg"
   xmlns="http://www.w3.org/2000/svg"
   xmlns:sodipodi="http://sodipodi.sourceforge.net/DTD/sodipodi-0.dtd"
   xmlns:inkscape="http://www.inkscape.org/namespaces/inkscape"
   width="17.26683mm"
   height="16.833418mm"
   viewBox="0 0 17.26683 16.833418"
   version="1.1"
   id="svg3344"
   inkscape:version="0.92.2 2405546, 2018-03-11"
   sodipodi:docname="kubelet.svg">
  <defs
     id="defs3338" />
  <sodipodi:namedview
     id="base"
     pagecolor="#ffffff"
     bordercolor="#666666"
     borderopacity="1.0"
     inkscape:pageopacity="0.0"
     inkscape:pageshadow="2"
     inkscape:zoom="7.9195959"
     inkscape:cx="-39.147064"
     inkscape:cy="5.3644263"
     inkscape:document-units="mm"
     inkscape:current-layer="layer1"
     showgrid="false"
     inkscape:window-width="2560"
     inkscape:window-height="1556"
     inkscape:window-x="0"
     inkscape:window-y="0"
     inkscape:window-maximized="1"
     fit-margin-top="0"
     fit-margin-left="0"
     fit-margin-right="0"
     fit-margin-bottom="0" />
  <metadata
     id="metadata3341">
    <rdf:RDF>
      <cc:Work
         rdf:about="">
        <dc:format>image/svg+xml</dc:format>
        <dc:type
           rdf:resource="http://purl.org/dc/dcmitype/StillImage" />
        <dc:title />
      </cc:Work>
    </rdf:RDF>
  </metadata>
  <g
     inkscape:label="Calque 1"
     inkscape:groupmode="layer"
     id="layer1"
     transform="translate(-1.28847,-0.94341)">
    <path
       style="fill:#326ce5;fill-opacity:1;fill-rule:evenodd;stroke:none;stroke-width:0.26458332;stroke-linecap:square;stroke-miterlimit:10"
       inkscape:connector-curvature="0"
       d="M 1.28847,11.769032 2.99844,4.277467 9.92188,0.94341 l 6.92343,3.334057 1.70999,7.491565 -4.79123,6.007796 H 6.07968 Z"
       id="path1988" />
    <text
       id="text1992"
       y="16.622787"
       x="9.8915129"
       style="font-style:normal;font-weight:normal;font-size:10.58333302px;line-height:6.61458349px;font-family:Sans;letter-spacing:0px;word-spacing:0px;fill:#eeeeee;fill-opacity:1;stroke:none;stroke-width:0.26458332px;stroke-linecap:butt;stroke-linejoin:miter;stroke-opacity:1"
       xml:space="preserve"><tspan
         style="font-style:normal;font-variant:normal;font-weight:normal;font-stretch:normal;font-size:2.82222223px;font-family:Arial;-inkscape-font-specification:'Arial, Normal';font-variant-ligatures:normal;font-variant-caps:normal;font-variant-numeric:normal;font-feature-settings:normal;text-align:center;writing-mode:lr-tb;text-anchor:middle;fill:#eeeeee;fill-opacity:1;stroke-width:0.26458332px"
         y="16.622787"
         x="9.8915129"
         id="tspan1990"
         sodipodi:role="line">kubelet</tspan></text>
    <path
       sodipodi:nodetypes="cccccccccccccccccccccccccccccccccccccccccccccccccccccccccccccccccccccccccccccccccccscccccccccccccccc"
       id="path1994"
       d="m 9.90377,4.445939 c -0.13833,-0.0044 -3.9951,1.891873 -4.04553,1.989119 -0.12117,0.233682 -0.9989,4.281826 -0.94731,4.369073 0.03,0.05065 0.66219,0.851861 1.40458,1.780327 l 1.34982,1.688013 2.22119,9.18e-4 2.22164,9.18e-4 1.41321,-1.765731 1.41365,-1.765228 -0.49479,-2.168575 C 14.16803,7.382034 13.92457,6.386186 13.8997,6.362196 13.8302,6.295316 9.97874,4.448402 9.90377,4.445981 Z m 0.19614,0.947753 0.90893,0.263577 -0.90893,0.263576 -0.90892,-0.263576 z m -0.90892,0.36452 0.85112,0.253226 -0.004,1.183289 L 9.1913,6.72538 Z m 1.81785,0 V 6.72538 l -0.84679,0.469347 -0.004,-1.183289 z M 8.81136,7.37289 9.7203,7.636466 8.81136,7.900043 7.90244,7.636466 Z m 2.2087,0 L 11.929,7.636466 11.02006,7.900043 10.11113,7.636466 Z M 7.90244,7.73741 8.75356,7.990202 8.74956,9.173492 7.90274,8.704577 Z m 1.81786,0 v 0.967167 l -0.84681,0.468915 -0.004,-1.18329 z m 0.39083,0 0.85113,0.252792 -0.004,1.18329 -0.84682,-0.468915 z m 1.81787,0 v 0.967167 l -0.84682,0.468915 -0.004,-1.18329 z M 8.47934,9.252437 c 0.27063,0.0096 0.0611,0.281909 0.36841,0.427935 0.32775,0.155764 0.3954,-0.235354 0.60134,0.06341 0.20599,0.298766 -0.18339,0.223239 -0.15443,0.584956 0.029,0.361719 0.40165,0.224859 0.24589,0.552607 C 9.3848,11.209091 9.25523,10.833705 8.95646,11.039662 8.65772,11.245619 8.96246,11.49987 8.601,11.528854 8.23926,11.557834 8.4995,11.258407 8.17176,11.102646 7.84401,10.946881 7.77638,11.337567 7.57042,11.038796 7.36446,10.740029 7.75425,10.815986 7.72527,10.454268 7.69627,10.09255 7.32362,10.229409 7.4794,9.901664 7.63515,9.573915 7.76428,9.949304 8.06305,9.743344 8.36184,9.537388 8.05705,9.283136 8.41896,9.254154 c 0.0225,-0.0018 0.0424,-0.0023 0.0604,-0.0018 z m 2.33596,0.362794 c 0.48335,0.01358 0.0146,0.467218 0.45596,0.664766 0.44144,0.197548 0.46714,-0.454103 0.79937,-0.102669 0.33221,0.351432 -0.31997,0.34064 -0.14753,0.792455 0.17243,0.451813 0.65163,0.0092 0.63802,0.49264 -0.0137,0.483411 -0.46723,0.01456 -0.66477,0.455977 -0.19755,0.441412 0.4541,0.467143 0.10266,0.799357 -0.35141,0.332212 -0.34021,-0.319974 -0.79202,-0.147534 -0.45183,0.172437 -0.009,0.65161 -0.49265,0.638019 -0.48339,-0.01358 -0.0146,-0.467216 -0.45596,-0.664764 C 9.81697,12.345927 9.7908,12.997579 9.45859,12.646147 9.12638,12.294715 9.77857,12.305937 9.60613,11.854122 9.43368,11.402307 8.9545,11.844922 8.9681,11.36148 8.9818,10.878072 9.43531,11.34649 9.63288,10.905075 9.8304,10.463661 9.17877,10.437932 9.53019,10.105718 c 0.35145,-0.332214 0.34065,0.319971 0.79246,0.147534 0.45184,-0.17244 0.009,-0.651611 0.49265,-0.638021 z M 8.50048,9.868886 c -0.29365,9e-5 -0.53161,0.238249 -0.53145,0.531898 8e-5,0.293481 0.23797,0.531377 0.53145,0.531467 0.29366,1.59e-4 0.53182,-0.23781 0.5319,-0.531467 1.6e-4,-0.293825 -0.23807,-0.532057 -0.5319,-0.531898 z m 2.26436,0.480563 c -0.58689,-1.96e-4 -1.06271,0.475615 -1.06252,1.062503 5e-5,0.586719 0.4758,1.062267 1.06252,1.062071 0.58654,-5.8e-5 1.06201,-0.475531 1.06206,-1.062071 1.9e-4,-0.586708 -0.47535,-1.062445 -1.06206,-1.062503 z"
       style="opacity:1;fill:#eeeeee;fill-opacity:1;stroke:#eeeeee;stroke-width:0;stroke-miterlimit:10;stroke-dasharray:none;stroke-dashoffset:11.23642349;stroke-opacity:1"
       inkscape:connector-curvature="0" />
  </g>
</svg>

<svg xmlns="http://www.w3.org/2000/svg" width="65.26" height="63.622" viewBox="0 0 17.267 16.833"><path d="m1.288 11.769 1.71-7.492L9.922.943l6.923 3.334 1.71 7.492-4.79 6.008H6.08Z" style="fill:#326ce5;fill-opacity:1;fill-rule:evenodd;stroke:none;stroke-width:.26458332;stroke-linecap:square;stroke-miterlimit:10" transform="translate(-1.288 -.943)"/><text xml:space="preserve" x="9.892" y="16.623" style="font-style:normal;font-weight:400;font-size:10.58333302px;line-height:6.61458349px;font-family:Sans;letter-spacing:0;word-spacing:0;fill:#eee;fill-opacity:1;stroke:none;stroke-width:.26458332px;stroke-linecap:butt;stroke-linejoin:miter;stroke-opacity:1" transform="translate(-1.288 -.943)"><tspan x="9.892" y="16.623" style="font-style:normal;font-variant:normal;font-weight:400;font-stretch:normal;font-size:2.82222223px;font-family:Arial;-inkscape-font-specification:&quot;Arial, Normal&quot;;font-variant-ligatures:normal;font-variant-caps:normal;font-variant-numeric:normal;font-feature-settings:normal;text-align:center;writing-mode:lr-tb;text-anchor:middle;fill:#eee;fill-opacity:1;stroke-width:.26458332px">kubelet</tspan></text><path d="M9.904 4.446c-.139-.004-3.995 1.892-4.046 1.99-.12.233-.999 4.28-.947 4.368.03.05.662.852 1.405 1.78l1.35 1.688 2.22.001 2.222.001 1.413-1.765 1.414-1.766-.495-2.168c-.272-1.193-.515-2.189-.54-2.213-.07-.067-3.921-1.914-3.996-1.916Zm.196.948.909.263-.91.264-.908-.264zm-.909.364.851.253-.004 1.184-.847-.47Zm1.818 0v.967l-.847.47-.004-1.184zM8.81 7.373l.91.263-.91.264-.909-.264Zm2.21 0 .908.263-.909.264-.909-.264Zm-3.119.364.852.253-.004 1.183-.847-.468Zm1.818 0v.968l-.847.468L8.87 7.99zm.391 0 .851.253-.004 1.183-.847-.468zm1.818 0v.968l-.847.468-.004-1.183zm-3.45 1.515c.271.01.061.282.369.428.328.156.395-.235.601.064.206.299-.183.223-.154.585.029.361.401.225.246.552-.156.328-.286-.047-.585.159-.298.206.006.46-.355.489-.362.029-.102-.27-.43-.426-.327-.156-.395.235-.6-.064-.207-.299.183-.223.154-.585-.029-.361-.401-.225-.246-.552.156-.328.285.047.584-.159.299-.206-.006-.46.356-.489a.56.56 0 0 1 .06-.002zm2.336.363c.484.014.015.467.456.665.442.198.467-.454.8-.103.332.352-.32.341-.148.793.173.452.652.009.638.492-.014.484-.467.015-.665.456-.197.442.454.468.103.8-.351.332-.34-.32-.792-.148-.452.173-.009.652-.493.638-.483-.013-.014-.467-.456-.665-.441-.197-.467.455-.8.103-.332-.351.32-.34.148-.792-.172-.452-.652-.01-.638-.493.014-.483.467-.015.665-.456.197-.441-.454-.467-.103-.8.352-.331.34.32.793.148.451-.172.009-.651.492-.638zM8.5 9.87a.532.532 0 1 0 0 1.063.532.532 0 0 0 0-1.063zm2.265.48a1.062 1.062 0 1 0 0 2.125 1.062 1.062 0 0 0 0-2.125z" style="opacity:1;fill:#eee;fill-opacity:1;stroke:#eee;stroke-width:0;stroke-miterlimit:10;stroke-dasharray:none;stroke-dashoffset:11.23642349;stroke-opacity:1" transform="translate(-1.288 -.943)"/></svg>
